cse/static/img/twiddlethumbs.svg

<?xml version="1.0" encoding="UTF-8" standalone="no"?>
<!-- Created with Inkscape (http://www.inkscape.org/) -->

<svg
   xmlns:dc="http://purl.org/dc/elements/1.1/"
   xmlns:cc="http://creativecommons.org/ns#"
   xmlns:rdf="http://www.w3.org/1999/02/22-rdf-syntax-ns#"
   xmlns:svg="http://www.w3.org/2000/svg"
   xmlns="http://www.w3.org/2000/svg"
   xmlns:sodipodi="http://sodipodi.sourceforge.net/DTD/sodipodi-0.dtd"
   xmlns:inkscape="http://www.inkscape.org/namespaces/inkscape"
   width="800"
   height="800"
   viewBox="0 0 800.00001 800.00001"
   id="svg5314"
   version="1.1"
   inkscape:version="0.91 r13725"
   enable-background="new"
   sodipodi:docname="twiddlethumbs.svg">
  <defs
     id="defs5316">
    <filter
       inkscape:collect="always"
       style="color-interpolation-filters:sRGB"
       id="filter4511"
       x="-0.043863467"
       width="1.0877269"
       y="-0.042556305"
       height="1.0851126">
      <feGaussianBlur
         inkscape:collect="always"
         stdDeviation="0.42558078"
         id="feGaussianBlur4513" />
    </filter>
  </defs>
  <sodipodi:namedview
     id="base"
     pagecolor="#ffffff"
     bordercolor="#666666"
     borderopacity="1.0"
     inkscape:pageopacity="0.0"
     inkscape:pageshadow="2"
     inkscape:zoom="0.35"
     inkscape:cx="54.911588"
     inkscape:cy="62.857143"
     inkscape:document-units="px"
     inkscape:current-layer="layer1"
     showgrid="false"
     units="px"
     inkscape:window-width="1366"
     inkscape:window-height="705"
     inkscape:window-x="-8"
     inkscape:window-y="-8"
     inkscape:window-maximized="1" />
  <metadata
     id="metadata5319">
    <rdf:RDF>
      <cc:Work
         rdf:about="">
        <dc:format>image/svg+xml</dc:format>
        <dc:type
           rdf:resource="http://purl.org/dc/dcmitype/StillImage" />
        <dc:title></dc:title>
      </cc:Work>
    </rdf:RDF>
  </metadata>
  <g
     inkscape:label="Layer 1"
     inkscape:groupmode="layer"
     id="layer1"
     transform="translate(0,-252.36216)">
    <circle
       style="opacity:1;fill:#2196f3;fill-opacity:1;stroke:#2196f3;stroke-width:1;stroke-opacity:1"
       id="path5866"
       cx="400.28571"
       cy="652.64789"
       r="391.42856" />
    <g
       style="opacity:0.556;fill:#000000;filter:url(#filter4511)"
       id="g4453"
       transform="matrix(19.332569,0,0,19.332569,190.01155,450.07594)">
      <circle
         style="fill:#000000"
         id="circle4455"
         r="0.48899999"
         cy="5.335"
         cx="9.0550003" />
      <circle
         style="fill:#000000"
         id="circle4457"
         r="0.48899999"
         cy="5.335"
         cx="12.581" />
      <path
         style="fill:#000000"
         id="path4459"
         d="m 14.267,9.164 c 0,0 1.425,-6.119 0,-6.119 l -1.447,0 C 12.623,2.776 12.029,2.565 11.28,2.494 L 10.87,2.473 c -0.02,0 -0.038,0 -0.055,0 -0.017,0 -0.032,0 -0.049,0 C 10.629,2.035 10.124,0.722 8.993,0.398 8.89,0.166 8.657,0 8.384,0 8.012,0 7.714,0.303 7.714,0.672 c 0,0.367 0.298,0.671 0.67,0.671 0.311,0 0.572,-0.217 0.646,-0.506 0.767,0.319 1.168,1.238 1.321,1.66 -0.75,0.067 -1.346,0.282 -1.544,0.552 l -1.441,0 c -1.427,0 0,6.115 0,6.115 l 6.901,0 z M 12.581,4.255 c 0.596,0 1.08,0.484 1.08,1.08 0,0.598 -0.484,1.083 -1.08,1.083 -0.597,0 -1.081,-0.485 -1.081,-1.083 0,-0.596 0.484,-1.08 1.081,-1.08 z m -1.766,3.036 1.272,0 0,0.8 -2.543,0 0,-0.8 1.271,0 z M 9.051,4.255 c 0.602,0 1.086,0.484 1.086,1.08 0,0.598 -0.484,1.083 -1.086,1.083 -0.596,0 -1.075,-0.485 -1.075,-1.083 0,-0.596 0.479,-1.08 1.075,-1.08 z"
         inkscape:connector-curvature="0" />
      <path
         style="fill:#000000"
         id="path4461"
         d="m 17.392,2.236 c 0,0.479 0.387,0.863 0.863,0.863 l 0.12,0 0,2.948 0.076,0.068 c 0.229,-0.146 0.494,-0.241 0.786,-0.257 0.027,0 0.06,0 0.087,0 0.355,0 0.682,0.112 0.954,0.311 l 0,-3.069 0.136,0 c 0.473,0.005 0.856,-0.384 0.856,-0.856 0,-0.031 -0.002,-0.06 -0.002,-0.091 0,-0.029 0.008,-0.059 0.002,-0.087 l 0.006,-1.057 c 0,-0.378 -0.309,-0.689 -0.695,-0.689 -0.378,0 -0.691,0.312 -0.691,0.689 l 0,0.372 -1.125,-0.006 0,-0.366 c 0,-0.383 -0.317,-0.692 -0.696,-0.692 -0.384,0 -0.694,0.31 -0.694,0.692 l 0,1.051 c 0,0.054 0.009,0.11 0.018,0.163 -0.001,0.006 -0.001,0.008 -0.001,0.013 z"
         inkscape:connector-curvature="0" />
      <path
         style="fill:#000000"
         id="path4463"
         d="M 20.069,8.922 C 19.869,9.024 19.645,9.089 19.413,9.1 18.93,9.128 18.494,8.942 18.179,8.621 c -0.271,0.768 -0.762,1.4 -1.167,1.756 l 0.124,2.152 c 1.119,-0.478 2.478,-1.993 2.933,-3.607 z"
         inkscape:connector-curvature="0" />
      <path
         style="fill:#000000"
         id="path4465"
         d="m 19.324,6.505 c -0.576,0 -1.043,0.468 -1.043,1.045 0,0.578 0.467,1.046 1.043,1.046 0.579,0 1.046,-0.468 1.046,-1.046 0,-0.577 -0.467,-1.045 -1.046,-1.045 z"
         inkscape:connector-curvature="0" />
      <path
         style="fill:#000000"
         id="path4467"
         d="M 4.621,10.376 C 4.217,10.021 3.726,9.388 3.455,8.62 3.141,8.941 2.703,9.128 2.217,9.1 1.988,9.089 1.767,9.024 1.565,8.922 c 0.458,1.614 1.812,3.129 2.934,3.606 l 0.122,-2.152 z"
         inkscape:connector-curvature="0" />
      <path
         style="fill:#000000"
         id="path4469"
         d="m 1.357,6.17 c 0.269,-0.198 0.597,-0.311 0.95,-0.311 0.029,0 0.06,0 0.089,0 0.292,0.016 0.558,0.11 0.784,0.257 l 0.076,-0.068 0,-2.948 0.119,0 c 0.479,0 0.864,-0.384 0.864,-0.863 0,-0.005 0,-0.008 0,-0.014 C 4.249,2.17 4.26,2.113 4.26,2.06 l 0,-1.051 C 4.26,0.626 3.947,0.317 3.563,0.317 3.185,0.317 2.87,0.627 2.87,1.009 l 0,0.366 -1.13,0.006 0,-0.372 C 1.74,0.631 1.429,0.32 1.051,0.32 0.666,0.32 0.357,0.632 0.357,1.009 L 0.36,2.065 c -0.004,0.029 0.005,0.058 0.005,0.087 0,0.031 -0.005,0.06 -0.005,0.091 0,0.473 0.384,0.861 0.856,0.856 l 0.141,0 0,3.071 z"
         inkscape:connector-curvature="0" />
      <circle
         style="fill:#000000"
         id="circle4471"
         r="1.045"
         cy="7.5500002"
         cx="2.3080001" />
      <path
         style="fill:#000000"
         id="path4473"
         d="m 10.816,14.807 c -1.603,0 -2.906,1.305 -2.906,2.906 0,1.605 1.304,2.912 2.906,2.912 1.602,0 2.906,-1.307 2.906,-2.912 0.001,-1.602 -1.303,-2.906 -2.906,-2.906 z m 0.256,3.162 c -0.07,0.07 -0.163,0.106 -0.256,0.106 -0.092,0 -0.186,-0.036 -0.256,-0.106 L 9.288,16.696 c -0.141,-0.141 -0.141,-0.369 0,-0.511 0.141,-0.142 0.37,-0.142 0.512,0 l 1.272,1.273 c 0.142,0.141 0.142,0.37 0,0.511 z"
         inkscape:connector-curvature="0" />
      <path
         style="fill:#000000"
         id="path4475"
         d="m 21.967,17.428 c -0.468,0 -0.848,0.383 -0.848,0.854 0,0.405 -0.332,0.735 -0.74,0.735 -0.405,0 -0.735,-0.33 -0.735,-0.735 0,-0.908 -0.735,-1.647 -1.64,-1.647 -0.08,0 -0.156,0.013 -0.234,0.023 -0.193,-3.677 -3.227,-6.602 -6.953,-6.602 -3.851,0 -6.972,3.122 -6.972,6.973 0,3.85 3.121,6.972 6.972,6.972 3.75,0 6.801,-2.964 6.958,-6.676 0.075,-0.019 0.147,-0.047 0.229,-0.047 0.549,0 0.996,0.451 0.996,1.004 0,0.76 0.619,1.379 1.379,1.379 0.764,0 1.384,-0.619 1.384,-1.379 0,-0.115 0.092,-0.21 0.204,-0.21 0.178,0 0.321,-0.144 0.321,-0.321 0,-0.177 -0.143,-0.323 -0.321,-0.323 z m -11.151,3.921 c -2.002,0 -3.629,-1.631 -3.629,-3.636 0,-1.759 1.259,-3.228 2.922,-3.558 l 0,-0.724 -0.327,0 c -0.199,0 -0.361,-0.162 -0.361,-0.361 0,-0.2 0.162,-0.362 0.361,-0.362 l 0.688,0 0.688,0 0.693,0 c 0.199,0 0.361,0.162 0.361,0.362 0,0.199 -0.162,0.361 -0.361,0.361 l -0.331,0 0,0.723 c 0.597,0.118 1.131,0.392 1.584,0.764 l 0.145,-0.144 c -0.066,-0.135 -0.048,-0.302 0.064,-0.414 0.142,-0.142 0.37,-0.142 0.511,0 l 0.175,0.175 c 10e-4,0 0.002,10e-4 0.003,0.002 10e-4,0 10e-4,10e-4 10e-4,0.002 l 0.168,0.167 c 0.142,0.142 0.142,0.371 0,0.512 -0.07,0.071 -0.164,0.106 -0.256,0.106 -0.054,0 -0.105,-0.016 -0.154,-0.039 l -0.146,0.144 c 0.513,0.626 0.832,1.415 0.832,2.284 -10e-4,2.005 -1.629,3.636 -3.631,3.636 z"
         inkscape:connector-curvature="0" />
      <path
         style="fill:#000000"
         id="path4477"
         d="m 23.487,14.977 c -0.183,-0.564 -0.405,-0.828 -0.534,-0.941 -0.039,-0.034 -0.099,-0.004 -0.097,0.048 0.037,0.608 -0.191,0.764 -0.322,0.415 -0.052,-0.139 -0.082,-0.38 -0.082,-0.673 0,-0.488 -0.142,-0.99 -0.453,-1.398 -0.082,-0.106 -0.177,-0.206 -0.286,-0.291 -0.039,-0.03 -0.097,0 -0.093,0.051 0.023,0.33 0.003,1.279 -0.83,2.412 -0.754,1.051 -0.462,1.857 -0.358,2.076 0.198,0.419 0.476,0.665 0.745,0.809 0.053,0.027 0.108,-0.032 0.076,-0.083 -0.174,-0.271 -0.339,-0.727 -0.076,-1.314 0.438,-0.979 0.705,-1.487 0.705,-1.487 0,0 0.142,0.593 0.525,1.119 0.37,0.506 0.572,1.144 0.247,1.675 -0.03,0.05 0.022,0.108 0.074,0.082 0.404,-0.207 0.858,-0.622 0.909,-1.447 0.02,-0.255 -0.008,-0.608 -0.15,-1.053 z"
         inkscape:connector-curvature="0" />
    </g>
    <g
       transform="matrix(19.332569,0,0,19.332569,166.29726,419.79023)"
       id="g4319"
       style="fill:#ffffff">
      <circle
         cx="9.0550003"
         cy="5.335"
         r="0.48899999"
         id="circle4321"
         style="fill:#ffffff" />
      <circle
         cx="12.581"
         cy="5.335"
         r="0.48899999"
         id="circle4323"
         style="fill:#ffffff" />
      <path
         inkscape:connector-curvature="0"
         d="m 14.267,9.164 c 0,0 1.425,-6.119 0,-6.119 l -1.447,0 C 12.623,2.776 12.029,2.565 11.28,2.494 L 10.87,2.473 c -0.02,0 -0.038,0 -0.055,0 -0.017,0 -0.032,0 -0.049,0 C 10.629,2.035 10.124,0.722 8.993,0.398 8.89,0.166 8.657,0 8.384,0 8.012,0 7.714,0.303 7.714,0.672 c 0,0.367 0.298,0.671 0.67,0.671 0.311,0 0.572,-0.217 0.646,-0.506 0.767,0.319 1.168,1.238 1.321,1.66 -0.75,0.067 -1.346,0.282 -1.544,0.552 l -1.441,0 c -1.427,0 0,6.115 0,6.115 l 6.901,0 z M 12.581,4.255 c 0.596,0 1.08,0.484 1.08,1.08 0,0.598 -0.484,1.083 -1.08,1.083 -0.597,0 -1.081,-0.485 -1.081,-1.083 0,-0.596 0.484,-1.08 1.081,-1.08 z m -1.766,3.036 1.272,0 0,0.8 -2.543,0 0,-0.8 1.271,0 z M 9.051,4.255 c 0.602,0 1.086,0.484 1.086,1.08 0,0.598 -0.484,1.083 -1.086,1.083 -0.596,0 -1.075,-0.485 -1.075,-1.083 0,-0.596 0.479,-1.08 1.075,-1.08 z"
         id="path4325"
         style="fill:#ffffff" />
      <path
         inkscape:connector-curvature="0"
         d="m 17.392,2.236 c 0,0.479 0.387,0.863 0.863,0.863 l 0.12,0 0,2.948 0.076,0.068 c 0.229,-0.146 0.494,-0.241 0.786,-0.257 0.027,0 0.06,0 0.087,0 0.355,0 0.682,0.112 0.954,0.311 l 0,-3.069 0.136,0 c 0.473,0.005 0.856,-0.384 0.856,-0.856 0,-0.031 -0.002,-0.06 -0.002,-0.091 0,-0.029 0.008,-0.059 0.002,-0.087 l 0.006,-1.057 c 0,-0.378 -0.309,-0.689 -0.695,-0.689 -0.378,0 -0.691,0.312 -0.691,0.689 l 0,0.372 -1.125,-0.006 0,-0.366 c 0,-0.383 -0.317,-0.692 -0.696,-0.692 -0.384,0 -0.694,0.31 -0.694,0.692 l 0,1.051 c 0,0.054 0.009,0.11 0.018,0.163 -0.001,0.006 -0.001,0.008 -0.001,0.013 z"
         id="path4327"
         style="fill:#ffffff" />
      <path
         inkscape:connector-curvature="0"
         d="M 20.069,8.922 C 19.869,9.024 19.645,9.089 19.413,9.1 18.93,9.128 18.494,8.942 18.179,8.621 c -0.271,0.768 -0.762,1.4 -1.167,1.756 l 0.124,2.152 c 1.119,-0.478 2.478,-1.993 2.933,-3.607 z"
         id="path4329"
         style="fill:#ffffff" />
      <path
         inkscape:connector-curvature="0"
         d="m 19.324,6.505 c -0.576,0 -1.043,0.468 -1.043,1.045 0,0.578 0.467,1.046 1.043,1.046 0.579,0 1.046,-0.468 1.046,-1.046 0,-0.577 -0.467,-1.045 -1.046,-1.045 z"
         id="path4331"
         style="fill:#ffffff" />
      <path
         inkscape:connector-curvature="0"
         d="M 4.621,10.376 C 4.217,10.021 3.726,9.388 3.455,8.62 3.141,8.941 2.703,9.128 2.217,9.1 1.988,9.089 1.767,9.024 1.565,8.922 c 0.458,1.614 1.812,3.129 2.934,3.606 l 0.122,-2.152 z"
         id="path4333"
         style="fill:#ffffff" />
      <path
         inkscape:connector-curvature="0"
         d="m 1.357,6.17 c 0.269,-0.198 0.597,-0.311 0.95,-0.311 0.029,0 0.06,0 0.089,0 0.292,0.016 0.558,0.11 0.784,0.257 l 0.076,-0.068 0,-2.948 0.119,0 c 0.479,0 0.864,-0.384 0.864,-0.863 0,-0.005 0,-0.008 0,-0.014 C 4.249,2.17 4.26,2.113 4.26,2.06 l 0,-1.051 C 4.26,0.626 3.947,0.317 3.563,0.317 3.185,0.317 2.87,0.627 2.87,1.009 l 0,0.366 -1.13,0.006 0,-0.372 C 1.74,0.631 1.429,0.32 1.051,0.32 0.666,0.32 0.357,0.632 0.357,1.009 L 0.36,2.065 c -0.004,0.029 0.005,0.058 0.005,0.087 0,0.031 -0.005,0.06 -0.005,0.091 0,0.473 0.384,0.861 0.856,0.856 l 0.141,0 0,3.071 z"
         id="path4335"
         style="fill:#ffffff" />
      <circle
         cx="2.3080001"
         cy="7.5500002"
         r="1.045"
         id="circle4337"
         style="fill:#ffffff" />
      <path
         inkscape:connector-curvature="0"
         d="m 10.816,14.807 c -1.603,0 -2.906,1.305 -2.906,2.906 0,1.605 1.304,2.912 2.906,2.912 1.602,0 2.906,-1.307 2.906,-2.912 0.001,-1.602 -1.303,-2.906 -2.906,-2.906 z m 0.256,3.162 c -0.07,0.07 -0.163,0.106 -0.256,0.106 -0.092,0 -0.186,-0.036 -0.256,-0.106 L 9.288,16.696 c -0.141,-0.141 -0.141,-0.369 0,-0.511 0.141,-0.142 0.37,-0.142 0.512,0 l 1.272,1.273 c 0.142,0.141 0.142,0.37 0,0.511 z"
         id="path4339"
         style="fill:#ffffff" />
      <path
         inkscape:connector-curvature="0"
         d="m 21.967,17.428 c -0.468,0 -0.848,0.383 -0.848,0.854 0,0.405 -0.332,0.735 -0.74,0.735 -0.405,0 -0.735,-0.33 -0.735,-0.735 0,-0.908 -0.735,-1.647 -1.64,-1.647 -0.08,0 -0.156,0.013 -0.234,0.023 -0.193,-3.677 -3.227,-6.602 -6.953,-6.602 -3.851,0 -6.972,3.122 -6.972,6.973 0,3.85 3.121,6.972 6.972,6.972 3.75,0 6.801,-2.964 6.958,-6.676 0.075,-0.019 0.147,-0.047 0.229,-0.047 0.549,0 0.996,0.451 0.996,1.004 0,0.76 0.619,1.379 1.379,1.379 0.764,0 1.384,-0.619 1.384,-1.379 0,-0.115 0.092,-0.21 0.204,-0.21 0.178,0 0.321,-0.144 0.321,-0.321 0,-0.177 -0.143,-0.323 -0.321,-0.323 z m -11.151,3.921 c -2.002,0 -3.629,-1.631 -3.629,-3.636 0,-1.759 1.259,-3.228 2.922,-3.558 l 0,-0.724 -0.327,0 c -0.199,0 -0.361,-0.162 -0.361,-0.361 0,-0.2 0.162,-0.362 0.361,-0.362 l 0.688,0 0.688,0 0.693,0 c 0.199,0 0.361,0.162 0.361,0.362 0,0.199 -0.162,0.361 -0.361,0.361 l -0.331,0 0,0.723 c 0.597,0.118 1.131,0.392 1.584,0.764 l 0.145,-0.144 c -0.066,-0.135 -0.048,-0.302 0.064,-0.414 0.142,-0.142 0.37,-0.142 0.511,0 l 0.175,0.175 c 10e-4,0 0.002,10e-4 0.003,0.002 10e-4,0 10e-4,10e-4 10e-4,0.002 l 0.168,0.167 c 0.142,0.142 0.142,0.371 0,0.512 -0.07,0.071 -0.164,0.106 -0.256,0.106 -0.054,0 -0.105,-0.016 -0.154,-0.039 l -0.146,0.144 c 0.513,0.626 0.832,1.415 0.832,2.284 -10e-4,2.005 -1.629,3.636 -3.631,3.636 z"
         id="path4341"
         style="fill:#ffffff" />
      <path
         inkscape:connector-curvature="0"
         d="m 23.487,14.977 c -0.183,-0.564 -0.405,-0.828 -0.534,-0.941 -0.039,-0.034 -0.099,-0.004 -0.097,0.048 0.037,0.608 -0.191,0.764 -0.322,0.415 -0.052,-0.139 -0.082,-0.38 -0.082,-0.673 0,-0.488 -0.142,-0.99 -0.453,-1.398 -0.082,-0.106 -0.177,-0.206 -0.286,-0.291 -0.039,-0.03 -0.097,0 -0.093,0.051 0.023,0.33 0.003,1.279 -0.83,2.412 -0.754,1.051 -0.462,1.857 -0.358,2.076 0.198,0.419 0.476,0.665 0.745,0.809 0.053,0.027 0.108,-0.032 0.076,-0.083 -0.174,-0.271 -0.339,-0.727 -0.076,-1.314 0.438,-0.979 0.705,-1.487 0.705,-1.487 0,0 0.142,0.593 0.525,1.119 0.37,0.506 0.572,1.144 0.247,1.675 -0.03,0.05 0.022,0.108 0.074,0.082 0.404,-0.207 0.858,-0.622 0.909,-1.447 0.02,-0.255 -0.008,-0.608 -0.15,-1.053 z"
         id="path4343"
         style="fill:#ffffff" />
    </g>
  </g>
  <g
     inkscape:groupmode="layer"
     id="layer2"
     inkscape:label="Layer 2"
     style="display:inline" />
  <g
     inkscape:groupmode="layer"
     id="layer3"
     inkscape:label="Layer 3"
     style="display:inline" />
</svg>

<?xml version="1.0" encoding="utf-8"?>
<!-- Generator: Adobe Illustrator 16.0.0, SVG Export Plug-In . SVG Version: 6.00 Build 0)  -->
<!DOCTYPE svg PUBLIC "-//W3C//DTD SVG 1.1//EN" "http://www.w3.org/Graphics/SVG/1.1/DTD/svg11.dtd">
<svg version="1.1" id="Layer_1" xmlns="http://www.w3.org/2000/svg" xmlns:xlink="http://www.w3.org/1999/xlink" x="0px" y="0px"
	 width="24px" height="24px" viewBox="0 0 24 24" enable-background="new 0 0 24 24" xml:space="preserve">
<g>
	<circle cx="9.055" cy="5.335" r="0.489"/>
	<circle cx="12.581" cy="5.335" r="0.489"/>
	<path d="M14.267,9.164c0,0,1.425-6.119,0-6.119H12.82c-0.197-0.269-0.791-0.48-1.54-0.551l-0.41-0.021c-0.02,0-0.038,0-0.055,0
		s-0.032,0-0.049,0c-0.137-0.438-0.642-1.751-1.773-2.075C8.89,0.166,8.657,0,8.384,0c-0.372,0-0.67,0.303-0.67,0.672
		c0,0.367,0.298,0.671,0.67,0.671c0.311,0,0.572-0.217,0.646-0.506c0.767,0.319,1.168,1.238,1.321,1.66
		c-0.75,0.067-1.346,0.282-1.544,0.552H7.366c-1.427,0,0,6.115,0,6.115H14.267z M12.581,4.255c0.596,0,1.08,0.484,1.08,1.08
		c0,0.598-0.484,1.083-1.08,1.083c-0.597,0-1.081-0.485-1.081-1.083C11.5,4.739,11.984,4.255,12.581,4.255z M10.815,7.291h1.272v0.8
		H9.544v-0.8H10.815z M9.051,4.255c0.602,0,1.086,0.484,1.086,1.08c0,0.598-0.484,1.083-1.086,1.083
		c-0.596,0-1.075-0.485-1.075-1.083C7.976,4.739,8.455,4.255,9.051,4.255z"/>
	<path d="M17.392,2.236c0,0.479,0.387,0.863,0.863,0.863h0.12v2.948l0.076,0.068c0.229-0.146,0.494-0.241,0.786-0.257
		c0.027,0,0.06,0,0.087,0c0.355,0,0.682,0.112,0.954,0.311V3.1h0.136c0.473,0.005,0.856-0.384,0.856-0.856
		c0-0.031-0.002-0.06-0.002-0.091c0-0.029,0.008-0.059,0.002-0.087l0.006-1.057c0-0.378-0.309-0.689-0.695-0.689
		c-0.378,0-0.691,0.312-0.691,0.689v0.372l-1.125-0.006V1.009c0-0.383-0.317-0.692-0.696-0.692c-0.384,0-0.694,0.31-0.694,0.692
		V2.06c0,0.054,0.009,0.11,0.018,0.163C17.392,2.229,17.392,2.231,17.392,2.236z"/>
	<path d="M20.069,8.922c-0.2,0.102-0.424,0.167-0.656,0.178c-0.483,0.028-0.919-0.158-1.234-0.479
		c-0.271,0.768-0.762,1.4-1.167,1.756l0.124,2.152C18.255,12.051,19.614,10.536,20.069,8.922z"/>
	<path d="M19.324,6.505c-0.576,0-1.043,0.468-1.043,1.045c0,0.578,0.467,1.046,1.043,1.046c0.579,0,1.046-0.468,1.046-1.046
		C20.37,6.973,19.903,6.505,19.324,6.505z"/>
	<path d="M4.621,10.376C4.217,10.021,3.726,9.388,3.455,8.62C3.141,8.941,2.703,9.128,2.217,9.1
		c-0.229-0.011-0.45-0.076-0.652-0.178c0.458,1.614,1.812,3.129,2.934,3.606L4.621,10.376z"/>
	<path d="M1.357,6.17c0.269-0.198,0.597-0.311,0.95-0.311c0.029,0,0.06,0,0.089,0c0.292,0.016,0.558,0.11,0.784,0.257l0.076-0.068
		V3.1h0.119c0.479,0,0.864-0.384,0.864-0.863c0-0.005,0-0.008,0-0.014C4.249,2.17,4.26,2.113,4.26,2.06V1.009
		c0-0.383-0.313-0.692-0.697-0.692c-0.378,0-0.693,0.31-0.693,0.692v0.366L1.74,1.381V1.009c0-0.378-0.311-0.689-0.689-0.689
		c-0.385,0-0.694,0.312-0.694,0.689L0.36,2.065C0.356,2.094,0.365,2.123,0.365,2.152c0,0.031-0.005,0.06-0.005,0.091
		c0,0.473,0.384,0.861,0.856,0.856h0.141V6.17z"/>
	<circle cx="2.308" cy="7.55" r="1.045"/>
	<path d="M10.816,14.807c-1.603,0-2.906,1.305-2.906,2.906c0,1.605,1.304,2.912,2.906,2.912s2.906-1.307,2.906-2.912
		C13.723,16.111,12.419,14.807,10.816,14.807z M11.072,17.969c-0.07,0.07-0.163,0.106-0.256,0.106c-0.092,0-0.186-0.036-0.256-0.106
		l-1.272-1.273c-0.141-0.141-0.141-0.369,0-0.511s0.37-0.142,0.512,0l1.272,1.273C11.214,17.599,11.214,17.828,11.072,17.969z"/>
	<path d="M21.967,17.428c-0.468,0-0.848,0.383-0.848,0.854c0,0.405-0.332,0.735-0.74,0.735c-0.405,0-0.735-0.33-0.735-0.735
		c0-0.908-0.735-1.647-1.64-1.647c-0.08,0-0.156,0.013-0.234,0.023c-0.193-3.677-3.227-6.602-6.953-6.602
		c-3.851,0-6.972,3.122-6.972,6.973c0,3.85,3.121,6.972,6.972,6.972c3.75,0,6.801-2.964,6.958-6.676
		c0.075-0.019,0.147-0.047,0.229-0.047c0.549,0,0.996,0.451,0.996,1.004c0,0.76,0.619,1.379,1.379,1.379
		c0.764,0,1.384-0.619,1.384-1.379c0-0.115,0.092-0.21,0.204-0.21c0.178,0,0.321-0.144,0.321-0.321S22.145,17.428,21.967,17.428z
		 M10.816,21.349c-2.002,0-3.629-1.631-3.629-3.636c0-1.759,1.259-3.228,2.922-3.558v-0.724H9.782c-0.199,0-0.361-0.162-0.361-0.361
		c0-0.2,0.162-0.362,0.361-0.362h0.688h0.688h0.693c0.199,0,0.361,0.162,0.361,0.362c0,0.199-0.162,0.361-0.361,0.361H11.52v0.723
		c0.597,0.118,1.131,0.392,1.584,0.764l0.145-0.144c-0.066-0.135-0.048-0.302,0.064-0.414c0.142-0.142,0.37-0.142,0.511,0
		l0.175,0.175c0.001,0,0.002,0.001,0.003,0.002c0.001,0,0.001,0.001,0.001,0.002l0.168,0.167c0.142,0.142,0.142,0.371,0,0.512
		c-0.07,0.071-0.164,0.106-0.256,0.106c-0.054,0-0.105-0.016-0.154-0.039l-0.146,0.144c0.513,0.626,0.832,1.415,0.832,2.284
		C14.446,19.718,12.818,21.349,10.816,21.349z"/>
	<path d="M23.487,14.977c-0.183-0.564-0.405-0.828-0.534-0.941c-0.039-0.034-0.099-0.004-0.097,0.048
		c0.037,0.608-0.191,0.764-0.322,0.415c-0.052-0.139-0.082-0.38-0.082-0.673c0-0.488-0.142-0.99-0.453-1.398
		c-0.082-0.106-0.177-0.206-0.286-0.291c-0.039-0.03-0.097,0-0.093,0.051c0.023,0.33,0.003,1.279-0.83,2.412
		c-0.754,1.051-0.462,1.857-0.358,2.076c0.198,0.419,0.476,0.665,0.745,0.809c0.053,0.027,0.108-0.032,0.076-0.083
		c-0.174-0.271-0.339-0.727-0.076-1.314c0.438-0.979,0.705-1.487,0.705-1.487s0.142,0.593,0.525,1.119
		c0.37,0.506,0.572,1.144,0.247,1.675c-0.03,0.05,0.022,0.108,0.074,0.082c0.404-0.207,0.858-0.622,0.909-1.447
		C23.657,15.775,23.629,15.422,23.487,14.977z"/>
</g>
</svg>
